**kern	**kern	**kern	**kern
*MM60	*MM60	*MM60	*MM60
*k[b-e-a-]	*k[b-e-a-]	*k[b-e-a-]	*k[b-e-a-]
*M2/2	*M2/2	*M2/2	*M2/2
*tb32	*tb32	*tb32	*tb32
=90	=90	=90	=90
4C	2e-	2e-	8cc
.	.	.	8b-
4BB-	.	.	8cc
.	.	.	8dd-
4AA-	2e	2r	8cc
.	.	.	8b-
4C	.	.	8a-
.	.	.	8g
=91	=91	=91	=91
4FF	2f	1r	8a-
.	.	.	8cc
4AA-	.	.	8ff
.	.	.	8gg
4DD	2f#	.	8aa
.	.	.	8ee-
4D	.	.	8dd
.	.	.	8cc
=92	=92	=92	=92
4GG	8g	2r	[2b
.	8f	.	.
4D	8g	.	.
.	8a-	.	.
4G	8g	2g	8b]
.	8f	.	8aa-
4GG	8e-	.	8gg
.	8d	.	8ff
=93	=93	=93	=93
4C	[2c	2a-	8ee-
.	.	.	8dd
4E-	.	.	8cc
.	.	.	8b-
4FF#	8c]	2a	8a
.	8c	.	8ee-
4D	8B-	.	8dd
.	8A	.	8ff#
=94	=94	=94	=94
2GG	8G	2b-	2gg
.	8F#	.	.
.	8G	.	.
.	8A-	.	.
2r	8G	2b	2dd
.	8F	.	.
.	8E-	.	.
.	8D	.	.
=95	=95	=95	=95
1r	4C	8cc	2ee-
.	.	8b	.
.	4G	8cc	.
.	.	8dd-	.
.	4c	8cc	2ee
.	.	8b-	.
.	4C	8a-	.
.	.	8g	.
=96	=96	=96	=96
1r	8F	2a-	2ff
.	8A-	.	.
.	8c	.	.
.	8e-	.	.
.	8d	2a	2ff#
.	8c	.	.
.	8B-	.	.
.	8A	.	.
=97	=97	=97	=97
2r	8G	1b	8gg
.	8d	.	8ff
.	8e-	.	8gg
.	8f	.	8aa-
2GG	8e-	.	8gg
.	8d	.	8ff
.	8g	.	8ee-
.	8f	.	8dd
=98	=98	=98	=98
2AA-	[2e-	8cc	[2cc
.	.	8b-	.
.	.	8a-	.
.	.	8g	.
2AA	8e-]	[2f	8cc]
.	8e-	.	8cc
.	8d	.	8ff
.	8c	.	8ee-
=99	=99	=99	=99
2BB-	4B-	8f]	[2dd
.	.	8f	.
.	[4f	8b-	.
.	.	8a-	.
2BB	8f]	2g	8dd]
.	8f	.	8dd
.	8e-	.	8gg
.	8d	.	8ff
=100	=100	=100	=100
[1C	8c	4g	8ee-
.	8e-	.	8gg
.	8d	4g	8b
.	8f	.	8dd
.	8e-	4g	8cc
.	8g	.	8ee-
.	8B	4g	8dd
.	8d	.	8ff
=101	=101	=101	=101
8C]	[1cT	[1gT	[1ee-T
8E-	.	.	.
8D	.	.	.
8F	.	.	.
8E-	.	.	.
8G	.	.	.
8BB	.	.	.
8D	.	.	.
=102	=102	=102	=102
8C	1cT_	1gT]	1ee-T_
8E-	.	.	.
8BB	.	.	.
8D	.	.	.
8C	.	.	.
8E-	.	.	.
8GG	.	.	.
8BB-	.	.	.
=103	=103	=103	=103
1AA-	1c]	2f	8ee-]
.	.	.	8dd
.	.	.	8ff
.	.	.	8ee-
.	.	2f#	8dd
.	.	.	8cc
.	.	.	8b
.	.	.	8cc
=104	=104	=104	=104
8GG	2d	2g	(4cc
8G	.	.	.
8F	.	.	4b)
8G	.	.	.
8E-	2r	4r	4r
8F	.	.	.
8D	.	8f	4g
8E-	.	8g	.
=105	=105	=105	=105
4C	1r	8e-	4cc
.	.	8c	.
4F	.	8d	4cc
.	.	8e-	.
4E-	.	8f	4cc
.	.	8g	.
4D	.	8a	8cc
.	.	8b	8dd
=106	=106	=106	=106
[2C	1r	8cc	[2ee-
.	.	8g	.
.	.	8e-	.
.	.	8g	.
8C]	.	[2c	8ee-]
8A	.	.	8cc
8F#	.	.	8a
8A	.	.	8cc
=107	=107	=107	=107
4D	1r	8c]	4f#
.	.	8B-	.
4C	.	8A	4ee-
.	.	8c	.
4D	.	8B-	4dd
.	.	8A	.
4DD	.	8G	4cc
.	.	8F#	.
=108	=108	=108	=108
2GG	1r	8G	4b-
.	.	8B-	.
.	.	8c	8a
.	.	8d	8b-
4r	.	[2e-	8g
.	.	.	8gg
4C	.	.	8ff
.	.	.	8gg
=109	=109	=109	=109
2FF	1r	8e-]	4a-
.	.	8d	.
.	.	8c	4gg
.	.	8e-	.
4r	.	8d	4ff
.	.	8c	.
4FF	.	8B	4dd
.	.	8A	.
=110	=110	=110	=110
2GG	1r	8B	4g
.	.	8G	.
.	.	8A	4ff
.	.	8B	.
4r	.	8c	4ee-
.	.	8d	.
4C	.	8e-	[4cc
.	.	8f	.
=111	=111	=111	=111
4G	1r	8e-	8cc]
.	.	8c	8ee-
4G	.	8d	8dd
.	.	8e-	8cc
4G	.	8d	8b
.	.	8g	8a
4G	.	8e-	8g
.	.	8d	8f
=112	=112	=112	=112
[2A-	1r	8c	4e-
.	.	8d	.
.	.	8e-	2cc
.	.	8c	.
8A-]	.	[2f	.
8F	.	.	.
8D	.	.	4ff
8F	.	.	.
=113	=113	=113	=113
4BB	1r	8f]	4g
.	.	8e-	.
4A-	.	8d	4b
.	.	8f	.
4G	.	8e-	4cc
.	.	8f	.
4F	.	8d	4b
.	.	8e-	.
=114	=114	=114	=114
4E-	2r	4G	8cc
.	.	.	8gg
8D	.	4B	8ff
8E-	.	.	8gg
8C	4r	4c	8ee-
8D	.	.	8ff
8BB-	4G	[4g	8dd
8C	.	.	8ee-
=115	=115	=115	=115
1AA	4c	8g]	[1cc
.	.	8b-	.
.	4c	8a	.
.	.	8g	.
.	4c	8f#	.
.	.	8g	.
.	4c	8e	.
.	.	8f#	.
=116	=116	=116	=116
8GG	[2e-	[2g	8cc]
8G	.	.	8b
8E-	.	.	8cc
8G	.	.	8dd
[2C	8e-]	4g]	[2ee-
.	8c	.	.
.	8A	4cc	.
.	8c	.	.
=117	=117	=117	=117
8C]	4F#	[2a	4ee-]
8c	.	.	.
8A	4e-	.	4cc
8c	.	.	.
2F#	4d	8a]	[2aa
.	.	8cc	.
.	4c	8dd	.
.	.	8ee-	.
=118	=118	=118	=118
[2G	4B-	2.dd	8aa]
.	.	.	8gg
.	8A	.	8ff#
.	8B-	.	8gg
8G]	4G	.	[2bb-
8G	.	.	.
8D	4f	4dd	.
8F	.	.	.
=119	=119	=119	=119
4E	2g	2cc	8bb-]
.	.	.	8ff
4G	.	.	8ee
.	.	.	8dd
4C	4r	4r	8ee
.	.	.	[4.gg
4E	4g	8cc	.
.	.	8b-	.
=120	=120	=120	=120
[2F	8c	4a-	8gg]
.	8B-	.	8cc
.	8A-	4r	8ff
.	8c	.	8gg
8F]	4F	4r	[2aa-
8F	.	.	.
8C	4e-	4cc	.
8E-	.	.	.
=121	=121	=121	=121
4D	2f	2b-	8aa-]
.	.	.	8ee-
4F	.	.	8dd
.	.	.	8cc
4BB-	4r	4r	8dd
.	.	.	[4.ff
4D	4f	8b-	.
.	.	8a-	.
=122	=122	=122	=122
[2E-	8B-	4g	8ff]
.	8A-	.	8b-
.	8G	4r	8ee-
.	8B-	.	8ff
8E-]	4e-	2r	[2gg
8E-	.	.	.
8C	4ee-	.	.
8E-	.	.	.
=123	=123	=123	=123
1AA-	8cc	1r	8gg]
.	8ee-	.	8cc
.	8ff	.	8dd
.	8gg	.	8ee-
.	8ff	.	[2ff
.	8ee-	.	.
.	8dd	.	.
.	8cc	.	.
=124	=124	=124	=124
[1GG	8B	2r	8ff]
.	8f	.	8g
.	8e-	.	8a
.	8d	.	8b
.	4e-	4r	8cc
.	.	.	8dd
.	4A	4c	8ee-
.	.	.	8f#
=125	=125	=125	=125
1GG_	8B	4g	8g
.	8f	.	8dd
.	8e-	4g	8cc
.	8d	.	8b
.	8e-	4g	8cc
.	8d	.	8b
.	8e-	4g	8cc
.	8c	.	[8ee-
=126	=126	=126	=126
1GG_	2f	[2a-	8ee-]
.	.	.	8dd
.	.	.	8ee-
.	.	.	8cc
.	[2B	8a-]	[2dd
.	.	8f	.
.	.	8d	.
.	.	8f	.
=127	=127	=127	=127
1GG]	1B]	4B	8dd]
.	.	.	4ff
.	.	4a-	.
.	.	.	4ff
.	.	4g	.
.	.	.	4ee-
.	.	4f	.
.	.	.	8dd
=128	=128	=128	=128
4C	4G	4e-	4cc
4D	4F	8d	4aa- 4b
.	.	8e-	.
4E-	4G	8c	4gg 4cc
.	.	8e-	.
4F	4A-	4d 4cc	16ff
.	.	.	16ee-
.	.	.	8dd
=129	=129	=129	=129
2G	1G	4e- 4cc	2cc
.	.	4g 4ee-	.
2GG	.	8f	8dd 8b
.	.	8e-	8cc 8a
.	.	4f	4dd 4b 4g
=130	=130	=130	=130
[2CC	[2G	(2f	2dd 2b 2g
4CC]	4G]	4e-)	4cc 4g
==	==	==	==
*-	*-	*-	*-
